ui/StatusQ/src/assets/img/icons/smiley.svg

<svg fill="none" height="20" viewBox="0 0 20 20" width="20" xmlns="http://www.w3.org/2000/svg"><g fill="#4360df"><path clip-rule="evenodd" d="m10 18.5c4.6944 0 8.5-3.8056 8.5-8.5 0-4.69442-3.8056-8.5-8.5-8.5-4.69442 0-8.5 3.80558-8.5 8.5 0 4.6944 3.80558 8.5 8.5 8.5zm0 1.5c5.5228 0 10-4.4772 10-10 0-5.52285-4.4772-10-10-10-5.52285 0-10 4.47715-10 10 0 5.5228 4.47715 10 10 10z" fill-rule="evenodd"/><path d="m7.56858 13.1746c-.33955-.2373-.81146-.2438-1.10436.0491-.29289.2929-.29546.7723.03286 1.0248.96987.7461 2.18447 1.1896 3.50268 1.1896 1.31824 0 2.53284-.4435 3.50264-1.1896.3284-.2525.3258-.7319.0329-1.0248s-.7648-.2864-1.1044-.0491c-.6889.4812-1.527.7635-2.43114.7635-.90411 0-1.74229-.2823-2.43118-.7635z"/><path d="m15 8.5c0 .82843-.6716 1.5-1.5 1.5s-1.5-.67157-1.5-1.5.6716-1.5 1.5-1.5 1.5.67157 1.5 1.5z"/><path d="m8 8.5c0 .82843-.67157 1.5-1.5 1.5s-1.5-.67157-1.5-1.5.67157-1.5 1.5-1.5 1.5.67157 1.5 1.5z"/></g></svg>

<svg width="20" height="20" viewBox="0 0 20 20" fill="none" xmlns="http://www.w3.org/2000/svg">
<path fill-rule="evenodd" clip-rule="evenodd" d="M10 18.5C14.6944 18.5 18.5 14.6944 18.5 10C18.5 5.30558 14.6944 1.5 10 1.5C5.30558 1.5 1.5 5.30558 1.5 10C1.5 14.6944 5.30558 18.5 10 18.5ZM10 20C15.5228 20 20 15.5228 20 10C20 4.47715 15.5228 0 10 0C4.47715 0 0 4.47715 0 10C0 15.5228 4.47715 20 10 20Z" fill="#4360DF"/>
<path d="M7.56858 13.1746C7.22903 12.9373 6.75712 12.9308 6.46422 13.2237C6.17133 13.5166 6.16876 13.996 6.49708 14.2485C7.46695 14.9946 8.68155 15.4381 9.99976 15.4381C11.318 15.4381 12.5326 14.9946 13.5024 14.2485C13.8308 13.996 13.8282 13.5166 13.5353 13.2237C13.2424 12.9308 12.7705 12.9373 12.4309 13.1746C11.742 13.6558 10.9039 13.9381 9.99976 13.9381C9.09565 13.9381 8.25747 13.6558 7.56858 13.1746Z" fill="#4360DF"/>
<path d="M15 8.5C15 9.32843 14.3284 10 13.5 10C12.6716 10 12 9.32843 12 8.5C12 7.67157 12.6716 7 13.5 7C14.3284 7 15 7.67157 15 8.5Z" fill="#4360DF"/>
<path d="M8 8.5C8 9.32843 7.32843 10 6.5 10C5.67157 10 5 9.32843 5 8.5C5 7.67157 5.67157 7 6.5 7C7.32843 7 8 7.67157 8 8.5Z" fill="#4360DF"/>
</svg>
